images/advantages-icon-9.svg

<svg width="29" height="27" viewBox="0 0 29 27" fill="none" xmlns="http://www.w3.org/2000/svg">
<path d="M11.9735 15.1801H16.0301V24.6324C16.0301 26.0239 17.763 26.6804 18.6821 25.6301L28.6201 14.3398C29.4865 13.3552 28.7907 11.8192 27.4779 11.8192H23.4213V2.36686C23.4213 0.975307 21.6884 0.318864 20.7694 1.36915L10.8313 12.6594C9.97806 13.6441 10.6738 15.1801 11.9735 15.1801Z" fill="white"/>
<path d="M10.897 3.98095H1.70727C1.16898 3.98095 0.722656 3.53452 0.722656 2.99633C0.722656 2.45804 1.16898 2.01172 1.70727 2.01172H10.897C11.4353 2.01172 11.8816 2.45804 11.8816 2.99633C11.8816 3.53452 11.4353 3.98095 10.897 3.98095Z" fill="white"/>
<path d="M9.5842 24.9868H1.70727C1.16898 24.9868 0.722656 24.5405 0.722656 24.0022C0.722656 23.4639 1.16898 23.0176 1.70727 23.0176H9.5842C10.1224 23.0176 10.5688 23.4639 10.5688 24.0022C10.5688 24.5405 10.1224 24.9868 9.5842 24.9868Z" fill="white"/>
<path d="M5.64573 14.4839H1.70727C1.16898 14.4839 0.722656 14.0376 0.722656 13.4993C0.722656 12.9611 1.16898 12.5146 1.70727 12.5146H5.64573C6.18392 12.5146 6.63035 12.9611 6.63035 13.4993C6.63035 14.0376 6.18392 14.4839 5.64573 14.4839Z" fill="white"/>
</svg>

<svg width="29" height="27" fill="none" xmlns="http://www.w3.org/2000/svg"><path d="M11.973 15.18h4.057v9.452c0 1.392 1.733 2.048 2.652.998l9.938-11.29c.866-.985.17-2.52-1.142-2.52H23.42V2.366c0-1.392-1.733-2.048-2.652-.998l-9.938 11.29c-.853.985-.157 2.521 1.143 2.521zM10.897 3.981h-9.19a.992.992 0 01-.984-.985c0-.538.446-.984.984-.984h9.19c.538 0 .985.446.985.984a.992.992 0 01-.985.985zM9.584 24.987H1.707a.992.992 0 01-.984-.985c0-.538.446-.984.984-.984h7.877c.538 0 .985.446.985.984a.992.992 0 01-.985.985zM5.646 14.484H1.707a.992.992 0 01-.984-.985c0-.538.446-.984.984-.984h3.939c.538 0 .984.446.984.984a.992.992 0 01-.984.985z" fill="#fff"/></svg>
